!!!OTL: 737. Jesu, dir leb' und sterb' ich!
!!!ARE: Europa, Mitteleuropa, Deutschland
!!!SCT: B0737
!!!TXL: @@DE
!!!YEM: Copyright 1995, estate of Helmut Schaffrath.
**kern	**text
*ICvox	*
*Ivox	*
*clefG2	*
*M4/4	*
*met(c)	*
*k[f#]	*
*G:	*
=1	=1
!LO:TX:a:t=Ruhig.	!
{4r	.
4d	Jch
4g	glaub'
4a	an
=2	=2
(2b	Gott,
4cc)	.
4b	in
=3	=3
4a	al-
4g	-ler
2a	Noth
=4	=4
4r}	.
{4d	auf
4g	ihn
4a	mein
=5	=5
(4b	Hof-
4dd	.
4cc)	.
4b	-fen
=6	=6
2a	bau-
4g	-e.
4r	.
=7	=7
4r}	.
{4d	Jch
4g	lie-
4a	-de
=8	=8
(2b	Gott
4cc)	.
4b	bis
=9	=9
4a	in
4g	den
2a	Tod,
=10	=10
4r}	.
{4d	auf
4g	die-
4a	-ſe
=11	=11
(4b	Lieb'
4dd	.
4cc)	.
4b	ver-
=12	=12
2a	-trau-
4g	-e.
4r}	.
=13	=13
{2g	Je-
8gL	-ſu,
8aJ	.
8bL	dir
8ccJ	.
=14	=14
2dd	leb'
4ee	ich.
4dd	Je-
=15	=15
4cc	-ſu,
4b	dir
4a	ſterb'
(8bL	.
8ccJ)	.
=16	=16
4dd}	ich,
{4cc	dein
4b	bin
4a	ich
=17	=17
(4b	todt
4dd)	.
4cc	und
4b	le-
=18	=18
2a	-ben-
4g	-dig.
4r}	.
==	==
!!!AGN: Lob - Lied, religioes
!!!GTL: Religioese Lieder
!!!ONB: ESAC (Essen Associative Code) Database: BOEHME
!!!AMT: simple quadruple
!!!AIN: vox
!!!EED: Helmut Schaffrath
!!!EEV: 1.0
!!Verf. der Mel. unbekannt.
!!!URL-scan: https://archive.org/details/BoehmeVtLieder1895/page/n591/mode/2up
!!!ENC: Anna Maria Matuszewska
!!!EEV: 2024/18/07
*-	*-
